X:533
T:Never Weather-Beaten Saile
Z:Jack Campin, http://www.campin.me.uk/
F:Jack Campin's Nine-Note Tunebook
% last edit 03-02-2013
C:Thomas Campion
B:Auden, Kallman & Greenberg, Elizabethan Song Book
N:chords simplified a bit from the piano part
M:C|
L:1/8
Q:1/2=66
K:F %Transposed from G
       "F"  A2      A2  "C" G3     c |"Bb"B2  "C7"B2  "F" A3      \
"Bb"d| "C"  c2  "Dm"F2  "F" G2 "C"G2 |"F" F8                    :|
       "F"  c2  "C"(GA) "Bb"B2   (FG)|"F" A2      EF  "G" G3      \
"C" G| "F" (AG)    (AB) "C" c3     d |"C"(cB) "F"(AB) "C" G4    ||
     |:"Bb" D3   "Gm"D  "C" E2    C2 |"F" F3       F  "C" G2  E2 |\
       "F"  A3   "Dm"A  "Gm"B2 "C"G2 |
                                      "F"(cB)    (AG) "Bb"F2 (DE)|\
       "Bb"(FG) "F"(AB) "C" G3      F|"F" F8                    :|


% == Later classical music ==================================================

